images/50097920.svg

<?xml version="1.0" encoding="UTF-8"?>
<svg xmlns="http://www.w3.org/2000/svg" xmlns:xlink="http://www.w3.org/1999/xlink" width="300pt" height="300pt" viewBox="0 0 300 300" version="1.1">
<defs>
<g>
<symbol overflow="visible" id="glyph0-0">
<path style="stroke:none;" d="M 0.453125 1.59375 L 0.453125 -6.34375 L 4.953125 -6.34375 L 4.953125 1.59375 Z M 0.953125 1.09375 L 4.453125 1.09375 L 4.453125 -5.84375 L 0.953125 -5.84375 Z M 0.953125 1.09375 "/>
</symbol>
<symbol overflow="visible" id="glyph0-1">
<path style="stroke:none;" d="M 0.890625 -6.5625 L 2.078125 -6.5625 L 4.984375 -1.078125 L 4.984375 -6.5625 L 5.84375 -6.5625 L 5.84375 0 L 4.65625 0 L 1.75 -5.484375 L 1.75 0 L 0.890625 0 Z M 0.890625 -6.5625 "/>
</symbol>
<symbol overflow="visible" id="glyph0-2">
<path style="stroke:none;" d="M 0.890625 -6.5625 L 1.765625 -6.5625 L 1.765625 -3.875 L 5 -3.875 L 5 -6.5625 L 5.890625 -6.5625 L 5.890625 0 L 5 0 L 5 -3.125 L 1.765625 -3.125 L 1.765625 0 L 0.890625 0 Z M 0.890625 -6.5625 "/>
</symbol>
</g>
</defs>
<g id="surface16597">
<rect x="0" y="0" width="300" height="300" style="fill:rgb(100%,100%,100%);fill-opacity:1;stroke:none;"/>
<path style="fill:none;stroke-width:1.2;stroke-linecap:butt;stroke-linejoin:miter;stroke:rgb(0%,0%,100%);stroke-opacity:1;stroke-miterlimit:10;" d="M 141.097656 131.667969 L 129.089844 134.808594 "/>
<path style="fill:none;stroke-width:1.2;stroke-linecap:butt;stroke-linejoin:miter;stroke:rgb(0%,0%,0%);stroke-opacity:1;stroke-miterlimit:10;" d="M 129.089844 134.808594 L 117.078125 137.945312 "/>
<path style="fill:none;stroke-width:1.2;stroke-linecap:butt;stroke-linejoin:miter;stroke:rgb(0%,0%,0%);stroke-opacity:1;stroke-miterlimit:10;" d="M 154.488281 152.574219 L 147.792969 142.121094 "/>
<path style="fill:none;stroke-width:1.2;stroke-linecap:butt;stroke-linejoin:miter;stroke:rgb(0%,0%,100%);stroke-opacity:1;stroke-miterlimit:10;" d="M 147.792969 142.121094 L 141.097656 131.667969 "/>
<path style=" stroke:none;fill-rule:nonzero;fill:rgb(100%,100%,100%);fill-opacity:1;" d="M 134.097656 126.167969 L 148.097656 126.167969 L 148.097656 137.167969 L 134.097656 137.167969 Z M 134.097656 126.167969 "/>
<g style="fill:rgb(0%,0%,100%);fill-opacity:1;">
  <use xlink:href="#glyph0-1" x="134.097656" y="134.831055"/>
  <use xlink:href="#glyph0-2" x="141.075195" y="134.831055"/>
</g>
<path style="fill:none;stroke-width:1.2;stroke-linecap:butt;stroke-linejoin:miter;stroke:rgb(0%,0%,0%);stroke-opacity:1;stroke-miterlimit:10;" d="M 117.078125 137.945312 L 115.625 162.726562 "/>
<path style="fill:none;stroke-width:1.2;stroke-linecap:butt;stroke-linejoin:miter;stroke:rgb(0%,0%,0%);stroke-opacity:1;stroke-miterlimit:10;" d="M 122.765625 140.765625 L 121.601562 160.589844 "/>
<path style="fill:none;stroke-width:1.2;stroke-linecap:butt;stroke-linejoin:miter;stroke:rgb(0%,0%,0%);stroke-opacity:1;stroke-miterlimit:10;" d="M 117.078125 137.945312 L 97.886719 122.203125 "/>
<path style="fill:none;stroke-width:1.2;stroke-linecap:butt;stroke-linejoin:miter;stroke:rgb(0%,0%,0%);stroke-opacity:1;stroke-miterlimit:10;" d="M 115.625 162.726562 L 127.1875 167.246094 "/>
<path style="fill:none;stroke-width:1.2;stroke-linecap:butt;stroke-linejoin:miter;stroke:rgb(0%,0%,100%);stroke-opacity:1;stroke-miterlimit:10;" d="M 127.1875 167.246094 L 138.746094 171.769531 "/>
<path style="fill:none;stroke-width:1.2;stroke-linecap:butt;stroke-linejoin:miter;stroke:rgb(0%,0%,0%);stroke-opacity:1;stroke-miterlimit:10;" d="M 115.625 162.726562 L 94.722656 176.117188 "/>
<path style="fill:none;stroke-width:1.2;stroke-linecap:butt;stroke-linejoin:miter;stroke:rgb(0%,0%,100%);stroke-opacity:1;stroke-miterlimit:10;" d="M 138.746094 171.769531 L 146.617188 162.171875 "/>
<path style="fill:none;stroke-width:1.2;stroke-linecap:butt;stroke-linejoin:miter;stroke:rgb(0%,0%,0%);stroke-opacity:1;stroke-miterlimit:10;" d="M 146.617188 162.171875 L 154.488281 152.574219 "/>
<path style="fill:none;stroke-width:1.2;stroke-linecap:butt;stroke-linejoin:miter;stroke:rgb(0%,0%,100%);stroke-opacity:1;stroke-miterlimit:10;" d="M 135.804688 166.144531 L 142.101562 158.464844 "/>
<path style="fill:none;stroke-width:1.2;stroke-linecap:butt;stroke-linejoin:miter;stroke:rgb(0%,0%,0%);stroke-opacity:1;stroke-miterlimit:10;" d="M 142.101562 158.464844 L 148.398438 150.789062 "/>
<path style=" stroke:none;fill-rule:nonzero;fill:rgb(100%,100%,100%);fill-opacity:1;" d="M 135.746094 166.269531 L 142.746094 166.269531 L 142.746094 177.269531 L 135.746094 177.269531 Z M 135.746094 166.269531 "/>
<g style="fill:rgb(0%,0%,100%);fill-opacity:1;">
  <use xlink:href="#glyph0-1" x="135.746094" y="174.932617"/>
</g>
<path style="fill:none;stroke-width:1.2;stroke-linecap:butt;stroke-linejoin:miter;stroke:rgb(0%,0%,0%);stroke-opacity:1;stroke-miterlimit:10;" d="M 154.488281 152.574219 L 179.269531 154.027344 "/>
<path style="fill:none;stroke-width:1.2;stroke-linecap:butt;stroke-linejoin:miter;stroke:rgb(0%,0%,0%);stroke-opacity:1;stroke-miterlimit:10;" d="M 179.269531 154.027344 L 184.835938 165.121094 "/>
<path style="fill:none;stroke-width:1.2;stroke-linecap:butt;stroke-linejoin:miter;stroke:rgb(0%,0%,100%);stroke-opacity:1;stroke-miterlimit:10;" d="M 184.835938 165.121094 L 190.402344 176.21875 "/>
<path style="fill:none;stroke-width:1.2;stroke-linecap:butt;stroke-linejoin:miter;stroke:rgb(0%,0%,100%);stroke-opacity:1;stroke-miterlimit:10;" d="M 190.402344 176.21875 L 202.792969 176.945312 "/>
<path style="fill:none;stroke-width:1.2;stroke-linecap:butt;stroke-linejoin:miter;stroke:rgb(0%,0%,0%);stroke-opacity:1;stroke-miterlimit:10;" d="M 202.792969 176.945312 L 215.183594 177.671875 "/>
<path style=" stroke:none;fill-rule:nonzero;fill:rgb(100%,100%,100%);fill-opacity:1;" d="M 183.402344 170.71875 L 197.402344 170.71875 L 197.402344 181.71875 L 183.402344 181.71875 Z M 183.402344 170.71875 "/>
<g style="fill:rgb(0%,0%,100%);fill-opacity:1;">
  <use xlink:href="#glyph0-1" x="183.402344" y="179.381836"/>
  <use xlink:href="#glyph0-2" x="190.379883" y="179.381836"/>
</g>
<path style="fill:none;stroke-width:1.2;stroke-linecap:butt;stroke-linejoin:miter;stroke:rgb(0%,0%,0%);stroke-opacity:1;stroke-miterlimit:10;" d="M 215.183594 177.671875 L 226.316406 199.859375 "/>
<path style="fill:none;stroke-width:1.2;stroke-linecap:butt;stroke-linejoin:miter;stroke:rgb(0%,0%,0%);stroke-opacity:1;stroke-miterlimit:10;" d="M 221.519531 177.269531 L 230.425781 195.023438 "/>
<path style="fill:none;stroke-width:1.2;stroke-linecap:butt;stroke-linejoin:miter;stroke:rgb(0%,0%,0%);stroke-opacity:1;stroke-miterlimit:10;" d="M 228.835938 156.9375 L 215.183594 177.671875 "/>
<path style="fill:none;stroke-width:1.2;stroke-linecap:butt;stroke-linejoin:miter;stroke:rgb(0%,0%,0%);stroke-opacity:1;stroke-miterlimit:10;" d="M 226.316406 199.859375 L 251.097656 201.3125 "/>
<path style="fill:none;stroke-width:1.2;stroke-linecap:butt;stroke-linejoin:miter;stroke:rgb(0%,0%,0%);stroke-opacity:1;stroke-miterlimit:10;" d="M 251.097656 201.3125 L 264.75 180.578125 "/>
<path style="fill:none;stroke-width:1.2;stroke-linecap:butt;stroke-linejoin:miter;stroke:rgb(0%,0%,0%);stroke-opacity:1;stroke-miterlimit:10;" d="M 247.585938 196.027344 L 258.507812 179.441406 "/>
<path style="fill:none;stroke-width:1.2;stroke-linecap:butt;stroke-linejoin:miter;stroke:rgb(0%,0%,0%);stroke-opacity:1;stroke-miterlimit:10;" d="M 264.75 180.578125 L 253.617188 158.390625 "/>
<path style="fill:none;stroke-width:1.2;stroke-linecap:butt;stroke-linejoin:miter;stroke:rgb(0%,0%,0%);stroke-opacity:1;stroke-miterlimit:10;" d="M 253.617188 158.390625 L 228.835938 156.9375 "/>
<path style="fill:none;stroke-width:1.2;stroke-linecap:butt;stroke-linejoin:miter;stroke:rgb(0%,0%,0%);stroke-opacity:1;stroke-miterlimit:10;" d="M 250.796875 164.074219 L 230.972656 162.914062 "/>
<path style="fill:none;stroke-width:1.2;stroke-linecap:butt;stroke-linejoin:miter;stroke:rgb(0%,0%,0%);stroke-opacity:1;stroke-miterlimit:10;" d="M 228.835938 156.9375 L 217.703125 134.746094 "/>
<path style="fill:none;stroke-width:1.2;stroke-linecap:butt;stroke-linejoin:miter;stroke:rgb(0%,0%,0%);stroke-opacity:1;stroke-miterlimit:10;" d="M 220.144531 136.351562 L 233.792969 115.617188 "/>
<path style="fill:none;stroke-width:1.2;stroke-linecap:butt;stroke-linejoin:miter;stroke:rgb(0%,0%,0%);stroke-opacity:1;stroke-miterlimit:10;" d="M 215.265625 133.140625 L 228.914062 112.40625 "/>
<path style="fill:none;stroke-width:1.2;stroke-linecap:butt;stroke-linejoin:miter;stroke:rgb(0%,0%,0%);stroke-opacity:1;stroke-miterlimit:10;" d="M 94.722656 176.117188 L 72.671875 164.707031 "/>
<path style="fill:none;stroke-width:1.2;stroke-linecap:butt;stroke-linejoin:miter;stroke:rgb(0%,0%,0%);stroke-opacity:1;stroke-miterlimit:10;" d="M 94.722656 176.117188 L 95.867188 200.914062 "/>
<path style="fill:none;stroke-width:1.2;stroke-linecap:butt;stroke-linejoin:miter;stroke:rgb(0%,0%,0%);stroke-opacity:1;stroke-miterlimit:10;" d="M 89 178.867188 L 89.917969 198.707031 "/>
<path style="fill:none;stroke-width:1.2;stroke-linecap:butt;stroke-linejoin:miter;stroke:rgb(0%,0%,0%);stroke-opacity:1;stroke-miterlimit:10;" d="M 72.671875 164.707031 L 51.769531 178.097656 "/>
<path style="fill:none;stroke-width:1.2;stroke-linecap:butt;stroke-linejoin:miter;stroke:rgb(0%,0%,0%);stroke-opacity:1;stroke-miterlimit:10;" d="M 73.734375 170.964844 L 57.011719 181.679688 "/>
<path style="fill:none;stroke-width:1.2;stroke-linecap:butt;stroke-linejoin:miter;stroke:rgb(0%,0%,0%);stroke-opacity:1;stroke-miterlimit:10;" d="M 51.769531 178.097656 L 52.914062 202.898438 "/>
<path style="fill:none;stroke-width:1.2;stroke-linecap:butt;stroke-linejoin:miter;stroke:rgb(0%,0%,0%);stroke-opacity:1;stroke-miterlimit:10;" d="M 52.914062 202.898438 L 63.9375 208.601562 "/>
<path style="fill:none;stroke-width:1.2;stroke-linecap:butt;stroke-linejoin:miter;stroke:rgb(0%,0%,100%);stroke-opacity:1;stroke-miterlimit:10;" d="M 63.9375 208.601562 L 74.960938 214.304688 "/>
<path style="fill:none;stroke-width:1.2;stroke-linecap:butt;stroke-linejoin:miter;stroke:rgb(0%,0%,100%);stroke-opacity:1;stroke-miterlimit:10;" d="M 35.25 220.339844 L 44.082031 211.621094 "/>
<path style="fill:none;stroke-width:1.2;stroke-linecap:butt;stroke-linejoin:miter;stroke:rgb(0%,0%,0%);stroke-opacity:1;stroke-miterlimit:10;" d="M 44.082031 211.621094 L 52.914062 202.898438 "/>
<path style="fill:none;stroke-width:1.2;stroke-linecap:butt;stroke-linejoin:miter;stroke:rgb(0%,0%,100%);stroke-opacity:1;stroke-miterlimit:10;" d="M 41.121094 222.753906 L 48.1875 215.777344 "/>
<path style="fill:none;stroke-width:1.2;stroke-linecap:butt;stroke-linejoin:miter;stroke:rgb(0%,0%,0%);stroke-opacity:1;stroke-miterlimit:10;" d="M 48.1875 215.777344 L 55.25 208.796875 "/>
<path style="fill:none;stroke-width:1.2;stroke-linecap:butt;stroke-linejoin:miter;stroke:rgb(0%,0%,100%);stroke-opacity:1;stroke-miterlimit:10;" d="M 74.960938 214.304688 L 70.925781 238.800781 "/>
<path style="fill:none;stroke-width:1.2;stroke-linecap:butt;stroke-linejoin:miter;stroke:rgb(0%,0%,100%);stroke-opacity:1;stroke-miterlimit:10;" d="M 74.960938 214.304688 L 85.414062 207.609375 "/>
<path style="fill:none;stroke-width:1.2;stroke-linecap:butt;stroke-linejoin:miter;stroke:rgb(0%,0%,0%);stroke-opacity:1;stroke-miterlimit:10;" d="M 85.414062 207.609375 L 95.867188 200.914062 "/>
<path style=" stroke:none;fill-rule:nonzero;fill:rgb(100%,100%,100%);fill-opacity:1;" d="M 71.960938 208.804688 L 78.960938 208.804688 L 78.960938 219.804688 L 71.960938 219.804688 Z M 71.960938 208.804688 "/>
<g style="fill:rgb(0%,0%,100%);fill-opacity:1;">
  <use xlink:href="#glyph0-1" x="71.960938" y="217.467773"/>
</g>
<path style="fill:none;stroke-width:1.2;stroke-linecap:butt;stroke-linejoin:miter;stroke:rgb(0%,0%,100%);stroke-opacity:1;stroke-miterlimit:10;" d="M 70.925781 238.800781 L 58.652344 240.664062 "/>
<path style="fill:none;stroke-width:1.2;stroke-linecap:butt;stroke-linejoin:miter;stroke:rgb(0%,0%,0%);stroke-opacity:1;stroke-miterlimit:10;" d="M 58.652344 240.664062 L 46.382812 242.53125 "/>
<path style="fill:none;stroke-width:1.2;stroke-linecap:butt;stroke-linejoin:miter;stroke:rgb(0%,0%,100%);stroke-opacity:1;stroke-miterlimit:10;" d="M 67.59375 233.398438 L 57.777344 234.890625 "/>
<path style="fill:none;stroke-width:1.2;stroke-linecap:butt;stroke-linejoin:miter;stroke:rgb(0%,0%,0%);stroke-opacity:1;stroke-miterlimit:10;" d="M 57.777344 234.890625 L 47.957031 236.382812 "/>
<path style=" stroke:none;fill-rule:nonzero;fill:rgb(100%,100%,100%);fill-opacity:1;" d="M 67.925781 233.300781 L 74.925781 233.300781 L 74.925781 244.300781 L 67.925781 244.300781 Z M 67.925781 233.300781 "/>
<g style="fill:rgb(0%,0%,100%);fill-opacity:1;">
  <use xlink:href="#glyph0-1" x="67.925781" y="241.963867"/>
</g>
<path style="fill:none;stroke-width:1.2;stroke-linecap:butt;stroke-linejoin:miter;stroke:rgb(0%,0%,0%);stroke-opacity:1;stroke-miterlimit:10;" d="M 46.382812 242.53125 L 40.816406 231.4375 "/>
<path style="fill:none;stroke-width:1.2;stroke-linecap:butt;stroke-linejoin:miter;stroke:rgb(0%,0%,100%);stroke-opacity:1;stroke-miterlimit:10;" d="M 40.816406 231.4375 L 35.25 220.339844 "/>
<path style=" stroke:none;fill-rule:nonzero;fill:rgb(100%,100%,100%);fill-opacity:1;" d="M 32.25 214.839844 L 39.25 214.839844 L 39.25 225.839844 L 32.25 225.839844 Z M 32.25 214.839844 "/>
<g style="fill:rgb(0%,0%,100%);fill-opacity:1;">
  <use xlink:href="#glyph0-1" x="32.25" y="223.50293"/>
</g>
<path style="fill:none;stroke-width:1.2;stroke-linecap:butt;stroke-linejoin:miter;stroke:rgb(0%,0%,0%);stroke-opacity:1;stroke-miterlimit:10;" d="M 97.886719 122.203125 L 99.902344 109.953125 "/>
<path style="fill:none;stroke-width:1.2;stroke-linecap:butt;stroke-linejoin:miter;stroke:rgb(0%,0%,100%);stroke-opacity:1;stroke-miterlimit:10;" d="M 99.902344 109.953125 L 101.921875 97.707031 "/>
<path style="fill:none;stroke-width:1.2;stroke-linecap:butt;stroke-linejoin:miter;stroke:rgb(0%,0%,0%);stroke-opacity:1;stroke-miterlimit:10;" d="M 92.523438 118.800781 L 94.140625 109.003906 "/>
<path style="fill:none;stroke-width:1.2;stroke-linecap:butt;stroke-linejoin:miter;stroke:rgb(0%,0%,100%);stroke-opacity:1;stroke-miterlimit:10;" d="M 94.140625 109.003906 L 95.753906 99.207031 "/>
<path style="fill:none;stroke-width:1.2;stroke-linecap:butt;stroke-linejoin:miter;stroke:rgb(0%,0%,0%);stroke-opacity:1;stroke-miterlimit:10;" d="M 74.652344 130.953125 L 97.886719 122.203125 "/>
<path style="fill:none;stroke-width:1.2;stroke-linecap:butt;stroke-linejoin:miter;stroke:rgb(0%,0%,100%);stroke-opacity:1;stroke-miterlimit:10;" d="M 101.921875 97.707031 L 92.324219 89.835938 "/>
<path style="fill:none;stroke-width:1.2;stroke-linecap:butt;stroke-linejoin:miter;stroke:rgb(0%,0%,0%);stroke-opacity:1;stroke-miterlimit:10;" d="M 92.324219 89.835938 L 82.726562 81.964844 "/>
<path style=" stroke:none;fill-rule:nonzero;fill:rgb(100%,100%,100%);fill-opacity:1;" d="M 98.921875 92.207031 L 105.921875 92.207031 L 105.921875 103.207031 L 98.921875 103.207031 Z M 98.921875 92.207031 "/>
<g style="fill:rgb(0%,0%,100%);fill-opacity:1;">
  <use xlink:href="#glyph0-1" x="98.921875" y="100.870117"/>
</g>
<path style="fill:none;stroke-width:1.2;stroke-linecap:butt;stroke-linejoin:miter;stroke:rgb(0%,0%,0%);stroke-opacity:1;stroke-miterlimit:10;" d="M 82.726562 81.964844 L 59.496094 90.714844 "/>
<path style="fill:none;stroke-width:1.2;stroke-linecap:butt;stroke-linejoin:miter;stroke:rgb(0%,0%,0%);stroke-opacity:1;stroke-miterlimit:10;" d="M 82.464844 88.304688 L 63.878906 95.304688 "/>
<path style="fill:none;stroke-width:1.2;stroke-linecap:butt;stroke-linejoin:miter;stroke:rgb(0%,0%,0%);stroke-opacity:1;stroke-miterlimit:10;" d="M 82.726562 81.964844 L 86.765625 57.46875 "/>
<path style="fill:none;stroke-width:1.2;stroke-linecap:butt;stroke-linejoin:miter;stroke:rgb(0%,0%,0%);stroke-opacity:1;stroke-miterlimit:10;" d="M 59.496094 90.714844 L 55.460938 115.210938 "/>
<path style="fill:none;stroke-width:1.2;stroke-linecap:butt;stroke-linejoin:miter;stroke:rgb(0%,0%,0%);stroke-opacity:1;stroke-miterlimit:10;" d="M 55.460938 115.210938 L 74.652344 130.953125 "/>
<path style="fill:none;stroke-width:1.2;stroke-linecap:butt;stroke-linejoin:miter;stroke:rgb(0%,0%,0%);stroke-opacity:1;stroke-miterlimit:10;" d="M 61.082031 112.269531 L 76.4375 124.863281 "/>
</g>
</svg>

<svg xmlns="http://www.w3.org/2000/svg" xmlns:xlink="http://www.w3.org/1999/xlink" width="300pt" height="300pt" viewBox="0 0 300 300"><defs><symbol overflow="visible"><path d="M.453 1.594v-7.938h4.5v7.938zm.5-.5h3.5v-6.938h-3.5zm0 0"/></symbol><symbol overflow="visible" id="a"><path d="M.89-6.563H2.08l2.906 5.485v-5.484h.86V0H4.656L1.75-5.484V0H.89zm0 0"/></symbol><symbol overflow="visible" id="b"><path d="M.89-6.563h.876v2.688H5v-2.688h.89V0H5v-3.125H1.766V0H.89zm0 0"/></symbol></defs><g><path fill="#fff" d="M0 0h300v300H0z"/><path d="M141.098 131.668l-12.008 3.14" stroke-width="1.2" stroke="#00f" stroke-miterlimit="10" fill="none"/><path d="M129.09 134.81l-12.012 3.135M154.488 152.574l-6.695-10.453" stroke-width="1.2" stroke="#000" stroke-miterlimit="10" fill="none"/><path d="M147.793 142.12l-6.695-10.452" stroke-width="1.2" stroke="#00f" stroke-miterlimit="10" fill="none"/><path d="M134.098 126.168h14v11h-14zm0 0" fill="#fff"/><g fill="#00f"><use xlink:href="#a" x="134.098" y="134.831"/><use xlink:href="#b" x="141.075" y="134.831"/></g><path d="M117.078 137.945l-1.453 24.782M122.766 140.766l-1.164 19.824M117.078 137.945l-19.19-15.742M115.625 162.727l11.563 4.52" stroke-width="1.2" stroke="#000" stroke-miterlimit="10" fill="none"/><path d="M127.188 167.246l11.558 4.524" stroke-width="1.2" stroke="#00f" stroke-miterlimit="10" fill="none"/><path d="M115.625 162.727l-20.902 13.39" stroke-width="1.2" stroke="#000" stroke-miterlimit="10" fill="none"/><path d="M138.746 171.77l7.87-9.598" stroke-width="1.2" stroke="#00f" stroke-miterlimit="10" fill="none"/><path d="M146.617 162.172l7.87-9.598" stroke-width="1.2" stroke="#000" stroke-miterlimit="10" fill="none"/><path d="M135.805 166.145l6.297-7.68" stroke-width="1.2" stroke="#00f" stroke-miterlimit="10" fill="none"/><path d="M142.102 158.465l6.296-7.676" stroke-width="1.2" stroke="#000" stroke-miterlimit="10" fill="none"/><path d="M135.746 166.27h7v11h-7zm0 0" fill="#fff"/><use xlink:href="#a" x="135.746" y="174.933" fill="#00f"/><path d="M154.488 152.574l24.782 1.453M179.27 154.027l5.566 11.094" stroke-width="1.2" stroke="#000" stroke-miterlimit="10" fill="none"/><path d="M184.836 165.12l5.566 11.1M190.402 176.22l12.39.725" stroke-width="1.2" stroke="#00f" stroke-miterlimit="10" fill="none"/><path d="M202.793 176.945l12.39.727" stroke-width="1.2" stroke="#000" stroke-miterlimit="10" fill="none"/><path d="M183.402 170.72h14v11h-14zm0 0" fill="#fff"/><g fill="#00f"><use xlink:href="#a" x="183.402" y="179.382"/><use xlink:href="#b" x="190.38" y="179.382"/></g><path d="M215.184 177.672l11.132 22.187M221.52 177.27l8.906 17.753M228.836 156.938l-13.652 20.734M226.316 199.86l24.782 1.452M251.098 201.313l13.652-20.735M247.586 196.027l10.922-16.586M264.75 180.578l-11.133-22.187M253.617 158.39l-24.78-1.452M250.797 164.074l-19.824-1.16M228.836 156.938l-11.133-22.192M220.145 136.352l13.648-20.735M215.266 133.14l13.648-20.734M94.723 176.117l-22.05-11.41M94.723 176.117l1.144 24.797M89 178.867l.918 19.84M72.672 164.707l-20.902 13.39M73.734 170.965L57.012 181.68M51.77 178.098l1.144 24.8M52.914 202.898l11.023 5.704" stroke-width="1.2" stroke="#000" stroke-miterlimit="10" fill="none"/><path d="M63.938 208.602l11.023 5.703M35.25 220.34l8.832-8.72" stroke-width="1.2" stroke="#00f" stroke-miterlimit="10" fill="none"/><path d="M44.082 211.62l8.832-8.722" stroke-width="1.2" stroke="#000" stroke-miterlimit="10" fill="none"/><path d="M41.12 222.754l7.068-6.977" stroke-width="1.2" stroke="#00f" stroke-miterlimit="10" fill="none"/><path d="M48.188 215.777l7.062-6.98" stroke-width="1.2" stroke="#000" stroke-miterlimit="10" fill="none"/><path d="M74.96 214.305L70.927 238.8M74.96 214.305l10.454-6.696" stroke-width="1.2" stroke="#00f" stroke-miterlimit="10" fill="none"/><path d="M85.414 207.61l10.453-6.696" stroke-width="1.2" stroke="#000" stroke-miterlimit="10" fill="none"/><path d="M71.96 208.805h7v11h-7zm0 0" fill="#fff"/><use xlink:href="#a" x="71.961" y="217.468" fill="#00f"/><path d="M70.926 238.8l-12.274 1.864" stroke-width="1.2" stroke="#00f" stroke-miterlimit="10" fill="none"/><path d="M58.652 240.664l-12.27 1.867" stroke-width="1.2" stroke="#000" stroke-miterlimit="10" fill="none"/><path d="M67.594 233.398l-9.817 1.493" stroke-width="1.2" stroke="#00f" stroke-miterlimit="10" fill="none"/><path d="M57.777 234.89l-9.82 1.493" stroke-width="1.2" stroke="#000" stroke-miterlimit="10" fill="none"/><path d="M67.926 233.3h7v11h-7zm0 0" fill="#fff"/><use xlink:href="#a" x="67.926" y="241.964" fill="#00f"/><path d="M46.383 242.53l-5.567-11.093" stroke-width="1.2" stroke="#000" stroke-miterlimit="10" fill="none"/><path d="M40.816 231.438L35.25 220.34" stroke-width="1.2" stroke="#00f" stroke-miterlimit="10" fill="none"/><path d="M32.25 214.84h7v11h-7zm0 0" fill="#fff"/><use xlink:href="#a" x="32.25" y="223.503" fill="#00f"/><path d="M97.887 122.203l2.015-12.25" stroke-width="1.2" stroke="#000" stroke-miterlimit="10" fill="none"/><path d="M99.902 109.953l2.02-12.246" stroke-width="1.2" stroke="#00f" stroke-miterlimit="10" fill="none"/><path d="M92.523 118.8l1.618-9.796" stroke-width="1.2" stroke="#000" stroke-miterlimit="10" fill="none"/><path d="M94.14 109.004l1.614-9.797" stroke-width="1.2" stroke="#00f" stroke-miterlimit="10" fill="none"/><path d="M74.652 130.953l23.235-8.75" stroke-width="1.2" stroke="#000" stroke-miterlimit="10" fill="none"/><path d="M101.922 97.707l-9.598-7.87" stroke-width="1.2" stroke="#00f" stroke-miterlimit="10" fill="none"/><path d="M92.324 89.836l-9.597-7.87" stroke-width="1.2" stroke="#000" stroke-miterlimit="10" fill="none"/><path d="M98.922 92.207h7v11h-7zm0 0" fill="#fff"/><use xlink:href="#a" x="98.922" y="100.87" fill="#00f"/><path d="M82.727 81.965l-23.23 8.75M82.465 88.305l-18.586 7M82.727 81.965l4.04-24.496M59.496 90.715L55.46 115.21M55.46 115.21l19.192 15.743M61.082 112.27l15.355 12.593" stroke-width="1.2" stroke="#000" stroke-miterlimit="10" fill="none"/></g></svg>
